!!!COM: Bartók, Béla
!!!OTL: Music for Strings, Percussion and Celesta
!!!OMV: I: Andante tranquillo
!!!example: 345
!!!work: Bar-45
**kern	**dynam	**kern	**kern	**kern	**kern
*part5	*part5	*part4	*part3	*part2	*part1
*staff5	*	*staff4	*staff3	*staff2	*staff1
*I"Contrabass	*	*I"Violoncello	*I"Viola	*I"Violin II	*I"Violin I
*I'Cb.	*	*I'Vc.	*I'Vla.	*I'Vln. II	*I'Vln. I
*clefF4	*	*clefF4	*clefC3	*clefG2	*clefG2
*k[]	*	*k[]	*k[]	*k[]	*k[]
*C:	*	*C:	*C:	*C:	*C:
*M7/8	*	*M7/8	*M7/8	*M7/8	*M7/8
=16	=	=	=	=	=
4r	.	8A-X	([2fn	(4.cn	(4ee~
.	.	(4G	.	.	.
4r	.	.	.	.	8dd#X
.	.	8An	.	8A#X	8cc#XL
4r	.	4.F#X)	8f]	4.B)	8ddn~J
.	.	.	4e)	.	4ccn)
(8GG	pp	.	.	.	.
=17	=17	=17	=17	=17	=17
*M9/8	*	*M9/8	*M9/8	*M9/8	*M9/8
8AA-X	.	(4Fn	(4c	(4e-X	(8b
4BBn	.	.	.	.	[4g
.	.	8E	8A	8f#X	.
4BB-X	.	[4.F	2.c)	2.e-)	8gL])
.	.	.	.	.	(8b
8AAn)	.	.	.	.	8cc#XJ
8r	.	8FL]	.	.	8ddL
8r	.	8A-X	.	.	8een
(8GG	.	8B-XJ)	.	.	8ff#XJ)
=18	=18	=18	=18	=18	=18
*M12/8	*	*M12/8	*M12/8	*M12/8	*M12/8
8AA-XL	.	([4.F	(8c	(4d	[4.gg
8BBn	.	.	4A	.	.
8CJ	.	.	.	8f#X	.
8D-X	.	8FL]	[4.e-X	4.a	8ggL]
4BB-X	.	8A-X	.	.	(8b
.	.	8G-XJ)	.	.	8ddJ
4AAn	.	([2.F	2.e-_	4a#X	8eeL
.	.	.	.	.	8ff#X
8AA-X)	.	.	.	8b	8ggJ)
8r	.	.	.	4cc#X)	[4.aa
(8BBnL	.	.	.	.	.
8DnJ	.	.	.	(8a#X	.
=19	=19	=19	=19	=19	=19
*M8/8	*	*M8/8	*M8/8	*M8/8	*M8/8
8C#X~L	.	4.F]	8e-L])	8b	4.aa]
8CnJ	.	.	(8BJ	4g)	.
8BB-XL	.	.	8c#XL	.	.
8BBnJ	.	8F	8dJ	(8g#X	(8ee
8AAn)	.	8GnL	8enL	8a#XL	8ff#XL
8r	.	8AnJ)	8fJ	8bJ	8gg#XJ
(8BB-XL	.	([4F#X	[4e-X	8ccnL	[4aa
8D-XJ	.	.	.	8ffnJ)	.
=20	=20	=20	=20	=20	=20
!!linebreak:original
*M7/8	*	*M7/8	*M7/8	*M7/8	*M7/8
4C~	.	4.F#]	8e-L]	([2ddn	4.aa]
.	.	.	8a-XJ)	.	.
8BBn	.	.	[4f	.	.
8AAL	.	8cL	.	.	8bb-X
8BB-X~J	.	8BJ	4.f_	4dd]	[4.aa
4AA-X)	.	4e)	.	.	.
.	.	.	.	8b)	.
=21	=21	=21	=21	=21	=21
*M10/8	*	*M10/8	*M10/8	*M10/8	*M10/8
[1GG	.	[4.c#X	4.f_	(4cc	8aaL])
.	.	.	.	.	(8eeJ
.	.	.	.	8aL	8ff#XL
.	.	4c#]	4f_	8b-XJ	8ccJ
.	.	.	.	8g#X)	8ee)
.	.	(8cn	8f]	[4.f#X	([4.a
.	.	8BL	(8dL	.	.
.	.	8c#XJ	8eJ	.	.
4GG_	.	8G#XL	8BL	4f#_	4a_
.	.	8FnJ)	8G#XJ)	.	.
=22	=22	=22	=22	=22	=22
!!linebreak:original
*M8/8	*	*M8/8	*M8/8	*M8/8	*M8/8
8GGL]	.	4.E	[2c#X	2.f#_	1a_
(8CJ	.	.	.	.	.
8BB-XL	.	.	.	.	.
[8FFJ	.	(8Gn	.	.	.
2FF_	.	8D	8c#L]	.	.
.	.	4D-X	(8eJ	.	.
.	.	.	8BL	8f#L]	.
.	.	[8C	[8G#XJ	(8aJ	.
=23	=23	=23	=23	=23	=23
*M5/8	*	*M5/8	*M5/8	*M5/8	*M5/8
4.FF])	.	4C])	8G#L]	4e	8aL]
.	.	.	16GnL	.	8b-X)
.	.	.	16AJJ)	.	.
.	.	8r	([4.A#X	[4.c#X	(8ddJ
(16DD#XLL	.	8r	.	.	8aL
16EEJ	.	.	.	.	.
[8FFJ	.	(8c~	.	.	[8f#XJ
=24	=24	=24	=24	=24	=24
*M6/8	*	*M6/8	*M6/8	*M6/8	*M6/8
4.FF_	.	8G	4A#]	4c#]	4f#]
.	.	4E	.	.	.
.	.	.	8G#X	8d)	8b-X)
4FF])	.	4E-X)	16GnLL	(8f#X	(8ddL
.	.	.	16AnJJ)	.	.
.	.	.	[4A#X	[4c#X)	8a
(16DD#XLL	.	[8c~	.	.	[8f#XJ)
16EEJJ)	.	.	.	.	.
==	==	==	==	==	==
*-	*-	*-	*-	*-	*-
!!!CDT: 1881/03/25-1945/09/26
!!!CBL: Sînnicolau Mare (Nagyszentmiklós), Romania (Hungary)
!!!CDL: New York, United States
!!!CNT: Hungarian
!!!AGN: Orchestral; Symphonic
!!!MCN: Sacher, Paul
!!!MDT: 1937/01/21
!!!MGN: Basel Chamber Orchestra
!!!MLC: Basel, Switzerland
!!!MPD: 1937
!!!MPN:
!!!ODT: 1936
!!!PDT: 1937
!!!excerpt-start-measure: 16
!!!excerpt-end-measure: 24
!!!excerpt-start-time: 1:30
!!!excerpt-end-time: 2:21
!!!EEV: 2020/01/17
!!!system-decoration: [(s1,s2,s3,s4,s5)]
!!!ONB: Converted from MusicXML on 2020/01/17
